Newaita-dark/actions/32/mail-forwarded.svg

<?xml version="1.0" encoding="UTF-8"?>
<svg xmlns="http://www.w3.org/2000/svg" xmlns:xlink="http://www.w3.org/1999/xlink" width="32pt" height="32pt" viewBox="0 0 32 32" version="1.1">
<g id="surface1">
<path style=" stroke:none;fill-rule:nonzero;fill:rgb(74.117649%,74.117649%,74.117649%);fill-opacity:1;" d="M 3.96875 4.21875 C 2.503906 4.21875 1.324219 5.398438 1.324219 6.863281 L 1.324219 17.449219 L 3.308594 17.449219 L 3.308594 7.738281 L 15.113281 18.300781 C 15.546875 18.6875 16.203125 18.6875 16.636719 18.300781 L 28.445312 7.738281 L 28.445312 17.449219 L 30.429688 17.449219 L 30.429688 6.863281 C 30.429688 5.398438 29.25 4.21875 27.785156 4.21875 Z M 5.019531 6.203125 L 26.730469 6.203125 L 15.875 15.917969 Z M 12.570312 26.710938 L 12.570312 28.695312 L 19.183594 28.695312 L 19.183594 26.710938 Z M 12.570312 26.710938 "/>
<path style=" stroke:none;fill-rule:evenodd;fill:rgb(14.901961%,77.64706%,85.490197%);fill-opacity:1;" d="M 23.578125 18.441406 C 22.984375 18.453125 22.503906 18.9375 22.503906 19.539062 L 22.503906 21.855469 L 18.308594 21.855469 C 17.761719 21.855469 17.316406 22.296875 17.316406 22.847656 C 17.316406 23.398438 17.761719 23.839844 18.308594 23.839844 L 22.503906 23.839844 L 22.503906 26.15625 C 22.503906 27.003906 23.425781 27.535156 24.160156 27.101562 L 29.78125 23.792969 C 30.503906 23.371094 30.503906 22.324219 29.78125 21.902344 L 24.160156 18.59375 C 24 18.5 23.820312 18.449219 23.636719 18.441406 C 23.617188 18.441406 23.597656 18.441406 23.578125 18.441406 Z M 23.578125 18.441406 "/>
<path style=" stroke:none;fill-rule:evenodd;fill:rgb(14.901961%,77.64706%,85.490197%);fill-opacity:1;" d="M 7.457031 18.441406 C 6.859375 18.453125 6.378906 18.9375 6.378906 19.539062 L 6.378906 21.855469 L 2.1875 21.855469 C 1.636719 21.855469 1.195312 22.296875 1.195312 22.847656 C 1.195312 23.398438 1.636719 23.839844 2.1875 23.839844 L 6.378906 23.839844 L 6.378906 26.15625 C 6.378906 27.003906 7.304688 27.535156 8.035156 27.101562 L 13.65625 23.792969 C 14.378906 23.371094 14.378906 22.324219 13.65625 21.902344 L 8.035156 18.59375 C 7.875 18.5 7.695312 18.449219 7.511719 18.441406 C 7.492188 18.441406 7.472656 18.441406 7.457031 18.441406 Z M 7.457031 18.441406 "/>
</g>
</svg>

<svg xmlns="http://www.w3.org/2000/svg" width="32pt" height="32pt" viewBox="0 0 32 32"><path d="M3.969 4.219a2.639 2.639 0 0 0-2.645 2.644V17.45H3.31V7.74L15.113 18.3c.434.387 1.09.387 1.524 0L28.445 7.738v9.711h1.985V6.863a2.639 2.639 0 0 0-2.645-2.644zm1.05 1.984H26.73l-10.855 9.715zm7.551 20.508v1.984h6.614v-1.984zm0 0" fill="#bdbdbd"/><path d="M23.578 18.441a1.096 1.096 0 0 0-1.074 1.098v2.316h-4.195a.991.991 0 1 0 0 1.985h4.195v2.316c0 .848.922 1.38 1.656.946l5.621-3.309a1.095 1.095 0 0 0 0-1.89l-5.62-3.31a1.129 1.129 0 0 0-.524-.152h-.059zm0 0M7.457 18.441a1.097 1.097 0 0 0-1.078 1.098v2.316H2.188a.989.989 0 0 0-.993.993c0 .55.442.992.992.992H6.38v2.316c0 .848.926 1.38 1.656.946l5.621-3.309a1.095 1.095 0 0 0 0-1.89l-5.62-3.31a1.129 1.129 0 0 0-.524-.152h-.055zm0 0" fill-rule="evenodd" fill="#26c6da"/></svg>
